X:1
T:Title
%%score { ( 1 3 ) | ( 2 4 ) }
L:1/8
M:4/4
K:A
V:1 treble nm="Grand Piano"
V:3 treble 
V:2 bass 
V:4 bass 
V:1
 z4 z2[Q:1/4=100] [A,C][B,D] | [CE]2 [CE]2 [DF][CE][A,C][B,D] | [CE]2 [CE]2 [DF][CE][A,C][B,D] | %3
 [CE]2 [CE]2 [EA][EG][EA][FB] |[M:9/8] c2 c- c B2- BC[B,D] | %5
[M:4/4] [CE]2 [CE]2 [DF][CE][A,C][B,D] | [CE]2 [CE]2 [DF][CE][A,C][B,D] | %7
 [CE]2 [CE]2 [EA][EG][EA][FB] | [Ec]2 [DB]2 [CA]4 | c>c cc ceee | [Ge]2 [GB]2 [GB]2 [Gc]>[GB] | %11
 AAAA [^DFA][DAc][DB][DA] |[M:5/4] [EB]2 B2 z2 z4 |[M:4/4] cc c>d c2 B2 | AA A>B A2 F2 | %15
 [CE][CE][CE][CE] [EA][EG][EA][FB] |[M:7/8] [Ec]2 [DB]2 [CA]3 |] %17
V:2
 z4 z2 [A,,E,][A,,E,] | [A,,A,]2 [A,,A,]2 [A,,A,][A,,A,][A,,E,][A,,E,] | %2
 [A,,A,]2 [A,,A,]2 [A,,A,][A,,A,][A,,E,][A,,E,] | [A,,A,]2 [A,,A,]2 [C,E,][B,,E,][C,A,][D,A,] | %4
[M:9/8] [E,A,E]2 [E,A,E]- [E,A,E] [E,G,D]2- [E,G,D][A,,E,A,][A,,E,] | %5
[M:4/4] [A,,A,]2 [A,,A,]2 [A,,A,][A,,A,][A,,E,][A,,E,] | %6
 [A,,A,]2 [A,,A,]2 [A,,A,][A,,A,][A,,E,][A,,E,] | [A,,A,]2 [A,,A,]2 [C,E,][B,,E,][C,A,][D,A,] | %8
 [E,A,]2 [E,G,]2 [A,,E,A,]4 | [A,EA]>[A,EA] [A,EA][A,EA] [A,EA][A,CA][A,DA][A,CA] | %10
 [E,B,]2 [E,E]2 [E,E]2 [E,E]>[E,D] | [F,CF][F,CF][F,CF][F,CF] B,,B,,[B,,B,][B,,B,] | %12
[M:5/4] z2 ^D2 z2 z4 |[M:4/4][K:treble] [A,E][A,E] [A,E]>[A,F] [A,E]2[K:bass] [E,G,D]2 | %14
 [F,A,C][F,A,C] [F,A,C]>[F,A,D] [F,A,C]2 [D,A,D]2 | %15
 [A,,A,][A,,A,][A,,A,][A,,A,] [B,,E,][B,,E,][C,A,][D,A,] |[M:7/8] [E,A,]2 [E,G,]2 [A,,E,A,]3 |] %17
V:3
 x8 | x8 | x8 | x8 |[M:9/8] x9 |[M:4/4] x8 | x8 | x8 | x8 | x8 | x8 | x8 |[M:5/4] z G, z A, B6 | %13
[M:4/4] x8 | x8 | x8 |[M:7/8] x7 |] %17
V:4
 x8 | x8 | x8 | x8 |[M:9/8] x9 |[M:4/4] x8 | x8 | x8 | x8 | x8 | x8 | x8 | %12
[M:5/4] [E,G,]E,[F,A,]F, [G,B,=D]6 |[M:4/4][K:treble] x6[K:bass] x2 | x8 | x8 |[M:7/8] x7 |] %17

